X:216 
T:Tirnaskea Lasses (reel), The 
S:McDermott MS
F:file ID: cre.4/216tirna
B:CRE4.202 (Gearrchaili Thir na Sceach)
L:1/8
Q:180
M:4/4
R:reel
K:G
B2BA G2BG|FADA FADA|B2BA G2Bc|dBAc BEED:|
e2 ge bege|defg afdf|efge bege|dBAc BEED|
e2 ge bege|defg afdf||gfed efge|dBAc BEED ||

%%%

